wp-content/themes/KOOEN/assets/img/common/service.svg

<svg fill="none" height="20" viewBox="0 0 74 20" width="74" xmlns="http://www.w3.org/2000/svg"><path d="m9.95 14.3c0 .8-.125 1.525-.375 2.175-.25.6333-.59167 1.1667-1.025 1.6-.41667.4333-.91667.7667-1.5 1s-1.20833.35-1.875.35c-.9 0-1.75833-.1833-2.575-.55-.8-.3833-1.44167-.8833-1.925-1.5l1.325-1.625c.38333.5.85833.8917 1.425 1.175.58333.2833 1.16667.425 1.75.425.75 0 1.36667-.25 1.85-.75s.725-1.225.725-2.175c0-.45-.075-.8417-.225-1.175-.15-.35-.35833-.6583-.625-.925-.26667-.2833-.575-.5333-.925-.75-.33333-.2333-.7-.45-1.1-.65-.48333-.2333-.94167-.4917-1.375-.775-.41667-.3-.79167-.64167-1.125-1.025s-.6-.83333-.8-1.35c-.18333-.53333-.275-1.15833-.275-1.875 0-.85.13333-1.59167.4-2.225s.61667-1.15833 1.05-1.575c.45-.41667.95833-.725 1.525-.925.56667-.200001 1.14167-.300001 1.725-.300001.85 0 1.60833.141671 2.275.425001.68333.28333 1.25.70833 1.7 1.275l-1.35 1.6c-.63333-.83333-1.48333-1.25-2.55-1.25-.31667 0-.63333.05833-.95.175-.3.1-.575.275-.825.525-.25.23333-.45.53333-.6.9s-.225.80833-.225 1.325c0 .45.06667.84167.2 1.175.15.31667.34167.60833.575.875.25.25.53333.48333.85.7.31667.2.65833.39167 1.025.575.46667.23333.925.5 1.375.8.45.2833.85833.625 1.225 1.025s.65833.875.875 1.425c.23333.5333.35 1.1583.35 1.875zm3.0107 4.7v-17.7h7.45v2h-5.275v5.575h4.925v1.875h-4.925v6.225h5.525v2.025zm17.8946 0-3-7.9h-2.05v7.9h-2.2v-17.7h4.575c.65 0 1.2583.09167 1.825.275.5833.16667 1.0916.44167 1.525.825.4333.38333.775.88333 1.025 1.5s.375 1.35833.375 2.225c0 .71667-.0917 1.34167-.275 1.875-.1834.53333-.425.99167-.725 1.375-.2834.36667-.6.6583-.95.875s-.6917.3583-1.025.425l3.3 8.325zm-.15-12.775c0-.6-.0834-1.09167-.25-1.475-.1667-.38333-.3834-.69167-.65-.925-.2667-.23333-.575-.39167-.925-.475-.35-.1-.7-.15-1.05-.15h-2.025v6.15h2.075c.85 0 1.5333-.26667 2.05-.8.5166-.55.775-1.325.775-2.325zm10.6297 12.775h-2.9l-4.35-17.7h2.475l3.375 15.1h.05l3.375-15.1h2.4zm6.489 0v-17.7h2.25v17.7zm15.9274-1.9c-.45.7-1.025 1.2667-1.725 1.7-.7.4167-1.55.625-2.55.625-.9834 0-1.8667-.2333-2.65-.7-.7834-.4667-1.4417-1.1167-1.975-1.95-.5334-.8333-.9417-1.8083-1.225-2.925-.2834-1.1333-.425-2.3667-.425-3.7 0-1.33333.1416-2.56667.425-3.7.3-1.13333.7166-2.10833 1.25-2.925.55-.83333 1.2083-1.48333 1.975-1.95.7833-.46667 1.6583-.700001 2.625-.700001.9 0 1.725.175001 2.475.525001s1.3666.88333 1.85 1.6l-1.4 1.525c-.3667-.53333-.7917-.925-1.275-1.175-.4834-.26667-1-.4-1.55-.4-.6834 0-1.275.19167-1.775.575s-.9167.9-1.25 1.55c-.3167.65-.5584 1.41667-.725 2.3-.1667.86667-.25 1.79167-.25 2.775 0 .9833.0833 1.9083.25 2.775.1666.8667.4166 1.6333.75 2.3.3333.65.75 1.1667 1.25 1.55.5166.3833 1.1166.575 1.8.575.6166 0 1.1583-.1667 1.625-.5.4833-.3333.8666-.7417 1.15-1.225zm2.3832 1.9v-17.7h7.45v2h-5.275v5.575h4.925v1.875h-4.925v6.225h5.525v2.025z" fill="#fff"/></svg>

<svg width="74" height="20" viewBox="0 0 74 20" fill="none" xmlns="http://www.w3.org/2000/svg">
<path d="M9.95 14.3C9.95 15.1 9.825 15.825 9.575 16.475C9.325 17.1083 8.98333 17.6417 8.55 18.075C8.13333 18.5083 7.63333 18.8417 7.05 19.075C6.46667 19.3083 5.84167 19.425 5.175 19.425C4.275 19.425 3.41667 19.2417 2.6 18.875C1.8 18.4917 1.15833 17.9917 0.675 17.375L2 15.75C2.38333 16.25 2.85833 16.6417 3.425 16.925C4.00833 17.2083 4.59167 17.35 5.175 17.35C5.925 17.35 6.54167 17.1 7.025 16.6C7.50833 16.1 7.75 15.375 7.75 14.425C7.75 13.975 7.675 13.5833 7.525 13.25C7.375 12.9 7.16667 12.5917 6.9 12.325C6.63333 12.0417 6.325 11.7917 5.975 11.575C5.64167 11.3417 5.275 11.125 4.875 10.925C4.39167 10.6917 3.93333 10.4333 3.5 10.15C3.08333 9.85 2.70833 9.50833 2.375 9.125C2.04167 8.74167 1.775 8.29167 1.575 7.775C1.39167 7.24167 1.3 6.61667 1.3 5.9C1.3 5.05 1.43333 4.30833 1.7 3.675C1.96667 3.04167 2.31667 2.51667 2.75 2.1C3.2 1.68333 3.70833 1.375 4.275 1.175C4.84167 0.974999 5.41667 0.874999 6 0.874999C6.85 0.874999 7.60833 1.01667 8.275 1.3C8.95833 1.58333 9.525 2.00833 9.975 2.575L8.625 4.175C7.99167 3.34167 7.14167 2.925 6.075 2.925C5.75833 2.925 5.44167 2.98333 5.125 3.1C4.825 3.2 4.55 3.375 4.3 3.625C4.05 3.85833 3.85 4.15833 3.7 4.525C3.55 4.89167 3.475 5.33333 3.475 5.85C3.475 6.3 3.54167 6.69167 3.675 7.025C3.825 7.34167 4.01667 7.63333 4.25 7.9C4.5 8.15 4.78333 8.38333 5.1 8.6C5.41667 8.8 5.75833 8.99167 6.125 9.175C6.59167 9.40833 7.05 9.675 7.5 9.975C7.95 10.2583 8.35833 10.6 8.725 11C9.09167 11.4 9.38333 11.875 9.6 12.425C9.83333 12.9583 9.95 13.5833 9.95 14.3ZM12.9607 19V1.3H20.4107V3.3H15.1357V8.875H20.0607V10.75H15.1357V16.975H20.6607V19H12.9607ZM30.8553 19L27.8553 11.1H25.8053V19H23.6053V1.3H28.1803C28.8303 1.3 29.4386 1.39167 30.0053 1.575C30.5886 1.74167 31.0969 2.01667 31.5303 2.4C31.9636 2.78333 32.3053 3.28333 32.5553 3.9C32.8053 4.51667 32.9303 5.25833 32.9303 6.125C32.9303 6.84167 32.8386 7.46667 32.6553 8C32.4719 8.53333 32.2303 8.99167 31.9303 9.375C31.6469 9.74167 31.3303 10.0333 30.9803 10.25C30.6303 10.4667 30.2886 10.6083 29.9553 10.675L33.2553 19H30.8553ZM30.7053 6.225C30.7053 5.625 30.6219 5.13333 30.4553 4.75C30.2886 4.36667 30.0719 4.05833 29.8053 3.825C29.5386 3.59167 29.2303 3.43333 28.8803 3.35C28.5303 3.25 28.1803 3.2 27.8303 3.2H25.8053V9.35H27.8803C28.7303 9.35 29.4136 9.08333 29.9303 8.55C30.4469 8 30.7053 7.225 30.7053 6.225ZM41.335 19H38.435L34.085 1.3H36.56L39.935 16.4H39.985L43.36 1.3H45.76L41.335 19ZM47.824 19V1.3H50.074V19H47.824ZM63.7514 17.1C63.3014 17.8 62.7264 18.3667 62.0264 18.8C61.3264 19.2167 60.4764 19.425 59.4764 19.425C58.493 19.425 57.6097 19.1917 56.8264 18.725C56.043 18.2583 55.3847 17.6083 54.8514 16.775C54.318 15.9417 53.9097 14.9667 53.6264 13.85C53.343 12.7167 53.2014 11.4833 53.2014 10.15C53.2014 8.81667 53.343 7.58333 53.6264 6.45C53.9264 5.31667 54.343 4.34167 54.8764 3.525C55.4264 2.69167 56.0847 2.04167 56.8514 1.575C57.6347 1.10833 58.5097 0.874999 59.4764 0.874999C60.3764 0.874999 61.2014 1.05 61.9514 1.4C62.7014 1.75 63.318 2.28333 63.8014 3L62.4014 4.525C62.0347 3.99167 61.6097 3.6 61.1264 3.35C60.643 3.08333 60.1264 2.95 59.5764 2.95C58.893 2.95 58.3014 3.14167 57.8014 3.525C57.3014 3.90833 56.8847 4.425 56.5514 5.075C56.2347 5.725 55.993 6.49167 55.8264 7.375C55.6597 8.24167 55.5764 9.16667 55.5764 10.15C55.5764 11.1333 55.6597 12.0583 55.8264 12.925C55.993 13.7917 56.243 14.5583 56.5764 15.225C56.9097 15.875 57.3264 16.3917 57.8264 16.775C58.343 17.1583 58.943 17.35 59.6264 17.35C60.243 17.35 60.7847 17.1833 61.2514 16.85C61.7347 16.5167 62.118 16.1083 62.4014 15.625L63.7514 17.1ZM66.1346 19V1.3H73.5846V3.3H68.3096V8.875H73.2346V10.75H68.3096V16.975H73.8346V19H66.1346Z" fill="white"/>
</svg>
